X: 1727
T: HUMPHREY'S HORNPIPE
M:C|
L:1/8
B:O'NEILL'S 1727
Z:Transcribed by A. LEE WORMAN
K:A
A2 c>A e>Af>A|e>Af>A e>cB>c|A2 c>A e>Af>A|e>cB>c A>FF>E|
A2 c>A e>Af>A|e>Af>A e>cB>c|A>BA>F E>cd>f|ecdB c>A A2:|
|:A2 c>e a2 a>f|e>fe>d c>dB>c|A2 c>e a2 a>g|g>bb>a b>ab>c'|
A2 c>e a2 a>f|e>fe>d c>dB>c|A>BA>F E>cd>f|e>cd>B c>A A2:|


